spyder/images/dark/syspath.svg

<svg width="24" height="24" viewBox="0 0 24 24" fill="none" xmlns="http://www.w3.org/2000/svg">
<path d="M2.0132 14.7045V14.4246C2.0132 14.2286 2.10559 14.1306 2.29036 14.1306H3.41223C3.59701 14.1306 3.68939 14.2286 3.68939 14.4246V14.5365C3.68939 14.8911 3.75539 15.1337 3.88737 15.2644C4.01935 15.395 4.26132 15.4603 4.61328 15.4603H5.23361C5.57677 15.4603 5.81434 15.3904 5.94632 15.2504C6.0871 15.1104 6.15749 14.8491 6.15749 14.4666V14.2986C6.15749 14.028 6.05191 13.8227 5.84073 13.6827C5.63836 13.5334 5.38319 13.4448 5.07523 13.4168C4.76726 13.3888 4.4329 13.3375 4.07215 13.2628C3.72019 13.1788 3.39023 13.0762 3.08227 12.9549C2.77431 12.8243 2.51474 12.577 2.30356 12.2131C2.10119 11.8398 2 11.3639 2 10.7854V10.2955C2 9.56765 2.19358 9.00311 2.58073 8.60187C2.96788 8.20062 3.50462 8 4.19093 8H5.51077C6.20589 8 6.74702 8.20062 7.13418 8.60187C7.52133 9.00311 7.71491 9.56765 7.71491 10.2955V10.5614C7.71491 10.7574 7.62252 10.8554 7.43774 10.8554H6.31588C6.1311 10.8554 6.03871 10.7574 6.03871 10.5614V10.4774C6.03871 10.1135 5.97272 9.86625 5.84073 9.73561C5.70875 9.60498 5.46678 9.53966 5.11482 9.53966H4.60008C4.23933 9.53966 3.99296 9.61431 3.86097 9.76361C3.73779 9.90358 3.6762 10.1835 3.6762 10.6034V10.8694C3.6762 11.3079 4.03695 11.5599 4.75846 11.6252C5.50637 11.6905 6.17069 11.8491 6.75142 12.1011C7.05938 12.2411 7.31455 12.493 7.51693 12.8569C7.7281 13.2115 7.83369 13.6687 7.83369 14.2286V14.7045C7.83369 15.4323 7.64011 15.9969 7.25296 16.3981C6.86581 16.7994 6.32907 17 5.64276 17H4.20413C3.51782 17 2.98108 16.7994 2.59393 16.3981C2.20677 15.9969 2.0132 15.4323 2.0132 14.7045Z" fill="#FAFAFA"/>
<path d="M10.7382 17H9.6163C9.43152 17 9.33913 16.902 9.33913 16.7061V8.29393C9.33913 8.09798 9.43152 8 9.6163 8H12.8367C13.523 8 14.0554 8.20062 14.4337 8.60187C14.8121 8.99378 15.0012 9.55365 15.0012 10.2815V11.6252C15.0012 12.353 14.8121 12.9176 14.4337 13.3188C14.0554 13.7107 13.523 13.9067 12.8367 13.9067H11.1737C11.0681 13.9067 11.0153 13.958 11.0153 14.0607V16.7061C11.0153 16.902 10.9229 17 10.7382 17ZM11.1605 12.353H12.5595C12.8411 12.353 13.0391 12.2924 13.1535 12.1711C13.2679 12.0404 13.325 11.8305 13.325 11.5412V10.3655C13.325 10.0669 13.2679 9.85692 13.1535 9.73561C13.0391 9.60498 12.8411 9.53966 12.5595 9.53966H11.1605C11.0637 9.53966 11.0153 9.59098 11.0153 9.69362V12.1991C11.0153 12.3017 11.0637 12.353 11.1605 12.353Z" fill="#FAFAFA"/>
<path d="M19.8223 17H18.3836C17.6885 17 17.1518 16.804 16.7734 16.4121C16.3951 16.0202 16.2059 15.4557 16.2059 14.7185V10.2815C16.2059 9.54432 16.3951 8.97978 16.7734 8.58787C17.1518 8.19596 17.6885 8 18.3836 8H19.8223C20.5086 8 21.0409 8.20062 21.4193 8.60187C21.8064 8.99378 22 9.55365 22 10.2815V10.9393C22 11.1446 21.9032 11.2473 21.7096 11.2473H20.601C20.4162 11.2473 20.3238 11.1446 20.3238 10.9393V10.3655C20.3238 10.0669 20.2622 9.85692 20.139 9.73561C20.0246 9.60498 19.8267 9.53966 19.5451 9.53966H18.6476C18.3748 9.53966 18.1769 9.60498 18.0537 9.73561C17.9393 9.85692 17.8821 10.0669 17.8821 10.3655V14.6345C17.8821 14.9331 17.9393 15.1477 18.0537 15.2784C18.1769 15.3997 18.3748 15.4603 18.6476 15.4603H19.5451C19.8267 15.4603 20.0246 15.3997 20.139 15.2784C20.2622 15.1477 20.3238 14.9331 20.3238 14.6345V14.0607C20.3238 13.8554 20.4162 13.7527 20.601 13.7527H21.7096C21.9032 13.7527 22 13.8554 22 14.0607V14.7185C22 15.4463 21.8064 16.0109 21.4193 16.4121C21.0409 16.804 20.5086 17 19.8223 17Z" fill="#FAFAFA"/>
</svg>

<svg xmlns="http://www.w3.org/2000/svg" width="24" height="24" fill="none"><path fill="#FAFAFA" d="M2.013 14.704v-.28c0-.195.093-.293.277-.293h1.122c.185 0 .277.098.277.294v.111c0 .355.066.598.198.728.132.131.374.196.726.196h.62c.344 0 .581-.07.713-.21.141-.14.211-.4.211-.783v-.168c0-.271-.105-.476-.316-.616-.203-.15-.458-.238-.766-.266a8.989 8.989 0 0 1-1.003-.154 7.363 7.363 0 0 1-.99-.308c-.308-.13-.567-.378-.778-.742C2.1 11.84 2 11.363 2 10.785v-.49c0-.727.194-1.292.58-1.693C2.969 8.2 3.506 8 4.19 8h1.32c.696 0 1.237.2 1.624.602.387.401.58.966.58 1.694v.265c0 .196-.091.294-.276.294H6.316c-.185 0-.277-.098-.277-.294v-.084c0-.364-.066-.61-.198-.741s-.374-.196-.726-.196H4.6c-.36 0-.607.074-.739.224-.123.14-.185.42-.185.84v.265c0 .439.36.69 1.082.756.748.066 1.413.224 1.993.476.308.14.564.392.766.756.211.354.317.812.317 1.372v.476c0 .727-.194 1.292-.581 1.693-.387.401-.924.602-1.61.602H4.204c-.686 0-1.223-.2-1.61-.602-.387-.401-.58-.966-.58-1.694ZM10.738 17H9.616c-.184 0-.277-.098-.277-.294V8.294c0-.196.093-.294.277-.294h3.22c.687 0 1.22.2 1.598.602.378.392.567.952.567 1.68v1.343c0 .728-.189 1.293-.567 1.694-.379.392-.911.588-1.597.588h-1.663c-.106 0-.159.051-.159.154v2.645c0 .196-.092.294-.277.294Zm.423-4.647h1.399c.281 0 .48-.06.593-.182.115-.13.172-.34.172-.63v-1.175c0-.3-.057-.51-.171-.63-.115-.131-.313-.196-.595-.196h-1.398c-.097 0-.146.051-.146.154v2.505c0 .103.049.154.146.154ZM19.822 17h-1.438c-.695 0-1.232-.196-1.61-.588-.379-.392-.568-.956-.568-1.693V10.28c0-.737.19-1.301.567-1.693.379-.392.916-.588 1.61-.588h1.44c.686 0 1.218.2 1.596.602.387.392.581.952.581 1.68v.657c0 .206-.097.308-.29.308H20.6c-.185 0-.277-.102-.277-.308v-.573c0-.3-.062-.51-.185-.63-.114-.131-.312-.196-.594-.196h-.897c-.273 0-.471.065-.594.196-.115.12-.172.33-.172.63v4.268c0 .3.057.514.172.644.123.122.32.182.594.182h.897c.282 0 .48-.06.594-.182.123-.13.185-.345.185-.644v-.573c0-.206.092-.308.277-.308h1.109c.193 0 .29.102.29.308v.658c0 .727-.194 1.292-.58 1.693-.38.392-.911.588-1.598.588Z"/></svg>
